icons/shared-address-book.svg

<svg width="25" height="24" viewBox="0 0 25 24" fill="none" xmlns="http://www.w3.org/2000/svg">
<path d="M5.47705 2C4.92477 2 4.47705 2.44772 4.47705 3V6H3.47705C2.92477 6 2.47705 6.44772 2.47705 7C2.47705 7.55228 2.92477 8 3.47705 8H4.47705V11H3.47705C2.92477 11 2.47705 11.4477 2.47705 12C2.47705 12.5523 2.92477 13 3.47705 13H4.47705V16H3.47705C2.92477 16 2.47705 16.4477 2.47705 17C2.47705 17.5523 2.92477 18 3.47705 18H4.47705V21C4.47705 21.5523 4.92477 22 5.47705 22H11.4771C12.0293 22 12.4771 21.5523 12.4771 21C12.4771 20.4477 12.0293 20 11.4771 20H6.47705V18C7.02934 18 7.47705 17.5523 7.47705 17C7.47705 16.4477 7.02934 16 6.47705 16V13C7.02934 13 7.47705 12.5523 7.47705 12C7.47705 11.4477 7.02934 11 6.47705 11V8C7.02934 8 7.47705 7.55228 7.47705 7C7.47705 6.44772 7.02934 6 6.47705 6V4H17.4771C18.5816 4 19.4771 4.89543 19.4771 6V12C19.4771 12.5523 19.9248 13 20.4771 13C21.0293 13 21.4771 12.5523 21.4771 12V6C21.4771 3.79086 19.6862 2 17.4771 2H5.47705Z" fill="#9AA1B4"/>
<path fill-rule="evenodd" clip-rule="evenodd" d="M13.4771 12C12.3725 12 11.4771 12.8954 11.4771 14C11.4771 14.5523 11.0293 15 10.4771 15C9.92477 15 9.47705 14.5523 9.47705 14C9.47705 12.6915 10.1054 11.5297 11.0768 10.7999C10.7002 10.2985 10.4771 9.67533 10.4771 9C10.4771 7.34315 11.8202 6 13.4771 6C15.1339 6 16.4771 7.34315 16.4771 9C16.4771 9.67533 16.2539 10.2985 15.8773 10.7999C16.8487 11.5297 17.4771 12.6915 17.4771 14C17.4771 14.5523 17.0293 15 16.4771 15C15.9248 15 15.4771 14.5523 15.4771 14C15.4771 12.8954 14.5816 12 13.4771 12ZM12.4771 9C12.4771 8.44772 12.9248 8 13.4771 8C14.0293 8 14.4771 8.44772 14.4771 9C14.4771 9.55228 14.0293 10 13.4771 10C12.9248 10 12.4771 9.55228 12.4771 9Z" fill="#9AA1B4"/>
<path d="M14.4771 20C14.4771 18.3431 15.8202 17 17.4771 17H17.9771V16C17.9771 15.6156 18.1974 15.2652 18.5439 15.0987C18.8903 14.9322 19.3016 14.979 19.6017 15.2191L22.1017 17.2191C22.339 17.4089 22.4771 17.6962 22.4771 18C22.4771 18.3038 22.339 18.5911 22.1017 18.7809L19.6017 20.7809C19.3016 21.021 18.8903 21.0678 18.5439 20.9013C18.1974 20.7348 17.9771 20.3844 17.9771 20V19H17.4771C16.9248 19 16.4771 19.4477 16.4771 20V21C16.4771 21.5523 16.0293 22 15.4771 22C14.9248 22 14.4771 21.5523 14.4771 21V20Z" fill="#9AA1B4"/>
</svg>

<?xml version="1.0" encoding="utf-8"?>
<!-- Generator: Adobe Illustrator 22.1.0, SVG Export Plug-In . SVG Version: 6.00 Build 0)  -->
<svg version="1.1" id="Layer_1" xmlns="http://www.w3.org/2000/svg" xmlns:xlink="http://www.w3.org/1999/xlink" x="0px" y="0px"
	 viewBox="0 0 25 24" style="enable-background:new 0 0 25 24;" xml:space="preserve">
<style type="text/css">
	.st0{fill:#9AA1B4;}
</style>
<path class="st0" d="M5.5,2c-0.6,0-1,0.4-1,1v3h-1c-0.6,0-1,0.4-1,1s0.4,1,1,1h1v3h-1c-0.6,0-1,0.4-1,1s0.4,1,1,1h1v3h-1
	c-0.6,0-1,0.4-1,1s0.4,1,1,1h1v3c0,0.6,0.4,1,1,1h6c0.6,0,1-0.4,1-1s-0.4-1-1-1h-5v-2c0.6,0,1-0.4,1-1s-0.4-1-1-1v-3
	c0.6,0,1-0.4,1-1s-0.4-1-1-1V8c0.6,0,1-0.4,1-1S7,6,6.5,6V4h11c1.1,0,2,0.9,2,2v6c0,0.6,0.4,1,1,1c0.6,0,1-0.4,1-1V6
	c0-2.2-1.8-4-4-4H5.5z"/>
<path class="st0" d="M15.9,10.8c0.4-0.5,0.6-1.1,0.6-1.8c0-1.7-1.3-3-3-3c-1.7,0-3,1.3-3,3c0,0.7,0.2,1.3,0.6,1.8
	c-1,0.7-1.6,1.9-1.6,3.2c0,0.6,0.4,1,1,1c0.6,0,1-0.4,1-1c0-1.1,0.9-2,2-2c1.1,0,2,0.9,2,2c0,0.6,0.4,1,1,1c0.6,0,1-0.4,1-1
	C17.5,12.7,16.8,11.5,15.9,10.8z M13.5,10c-0.6,0-1-0.4-1-1s0.4-1,1-1c0.6,0,1,0.4,1,1S14,10,13.5,10z"/>
<path class="st0" d="M14.5,20c0-1.7,1.3-3,3-3H18v-1c0-0.4,0.2-0.7,0.6-0.9c0.3-0.2,0.8-0.1,1.1,0.1l2.5,2c0.2,0.2,0.4,0.5,0.4,0.8
	s-0.1,0.6-0.4,0.8l-2.5,2c-0.3,0.2-0.7,0.3-1.1,0.1C18.2,20.7,18,20.4,18,20v-1h-0.5c-0.6,0-1,0.4-1,1v1c0,0.6-0.4,1-1,1
	c-0.6,0-1-0.4-1-1V20z"/>
</svg>
